img/svg/social/telegram.svg

<svg width="15.2" height="13.6" fill="none" xmlns="http://www.w3.org/2000/svg"><path d="M15.2.48l-2.41 12.55s-.34.87-1.26.45l-5.55-4.4-.02-.02c.75-.69 6.56-6.1 6.81-6.35.39-.38.15-.6-.31-.32L3.88 8.04.57 6.88S.05 6.69 0 6.27c-.05-.41.59-.64.59-.64L14.09.15s1.11-.51 1.11.33z" fill="#5E60CE"/></svg>

<svg width="15.200012" height="13.600098" viewBox="0 0 15.2 13.6001" fill="none" xmlns="http://www.w3.org/2000/svg" xmlns:xlink="http://www.w3.org/1999/xlink">
	<desc>
			Created with Pixso.
	</desc>
	<defs/>
	<path id="Vector" d="M15.2 0.48L12.79 13.03C12.79 13.03 12.45 13.9 11.53 13.48L5.98 9.08L5.96 9.06C6.71 8.37 12.52 2.96 12.77 2.71C13.16 2.33 12.92 2.11 12.46 2.39L3.88 8.04L0.57 6.88C0.57 6.88 0.05 6.69 0 6.27C-0.05 5.86 0.59 5.63 0.59 5.63L14.09 0.15C14.09 0.15 15.2 -0.36 15.2 0.48Z" fill="#5E60CE" fill-opacity="1.000000" fill-rule="nonzero"/>
</svg>
